build/img/sprites/sfera_logo_color.svg

<svg width="160" height="55" viewBox="0 0 160 55" fill="none" xmlns="http://www.w3.org/2000/svg">
<g clip-path="url(#clip0_2311_2449)">
<path fill-rule="evenodd" clip-rule="evenodd" d="M27.6976 14.2404L34.8851 20.225C35.2972 20.568 35.7202 22.5466 35.1634 23.2296L24.6574 36.1166L22.1761 34.0478L31.1276 23.4994C31.3935 23.049 31.8254 23.089 31.6264 22.3124L31.0215 21.7952L26.8233 18.2617C26.4333 18.0258 26.3182 17.7077 25.6266 18.0712L25.2771 18.4395L16.4902 29.4789L13.9785 27.4373L24.6494 14.4672C25.0565 13.9729 27.1694 13.801 27.6974 14.2404L27.6976 14.2404Z" fill="#4988D1"/>
<path fill-rule="evenodd" clip-rule="evenodd" d="M23.2974 42.9482L16.1098 36.9635C15.6977 36.6202 15.2748 34.642 15.8315 33.959L26.3373 21.0715L28.8187 23.1406L19.8669 33.6894C19.601 34.1394 19.1694 34.0997 19.3684 34.8762L19.9732 35.393L24.1712 38.9271C24.5612 39.163 24.6767 39.4807 25.3683 39.1178L25.7175 38.7494L34.5046 27.7098L37.0163 29.7512L26.3453 42.7213C25.9382 43.2159 23.8251 43.3877 23.2975 42.9482H23.2974Z" fill="#78213A"/>
<path d="M87.3446 21.7825H83.0164C82.6534 24.6659 81.0902 26.2179 78.4653 26.2179C75.2541 26.2179 73.2156 23.6123 73.2156 19.5368C73.2156 16.2376 74.6957 12.8279 78.5211 12.8279C80.8667 12.8279 82.4859 14.1032 82.9327 16.2653H87.205C86.8699 12.1903 83.3794 9.19604 78.6049 9.19604C72.5176 9.19604 68.832 13.7705 68.832 19.509C68.832 25.7465 72.6571 29.8774 78.4373 29.8774C83.8819 29.8774 86.8977 26.6059 87.3445 21.7824L87.3446 21.7825ZM110.967 22.032C110.967 17.513 108.817 14.6855 105.382 14.6855C103.707 14.6855 102.618 15.3786 102.199 16.1544H102.116V9.66742H98.2063V16.1544H98.1226C97.7038 15.3786 96.6147 14.6855 94.9393 14.6855C91.5051 14.6855 89.355 17.513 89.355 22.032C89.355 26.024 90.835 29.7945 95.1347 29.7945C96.3354 29.7945 97.564 29.1568 98.1226 28.4637H98.2063V34.4795H102.116V28.4637H102.199C102.757 29.1569 103.986 29.7945 105.187 29.7945C109.487 29.7945 110.967 26.024 110.967 22.032H110.967ZM107.058 22.1152C107.058 24.4718 106.471 26.7724 104.265 26.7724C103.093 26.7724 102.255 26.107 102.116 25.3862V19.2319C102.478 18.0951 103.539 17.707 104.377 17.707C106.248 17.707 107.058 19.3427 107.058 22.1152ZM98.2064 25.3863C98.0668 26.1071 97.229 26.7725 96.0563 26.7725C93.8503 26.7725 93.2639 24.4719 93.2639 22.1153C93.2639 19.3429 94.0737 17.7071 95.9446 17.7071C96.7823 17.7071 97.8434 18.0952 98.2064 19.232V25.3863ZM127.022 24.9704H123.225C122.638 26.412 121.745 27.0497 120.293 27.0497C118.17 27.0497 116.97 25.719 116.914 23.2519H127.245V22.8637C127.245 17.8457 124.481 14.6855 120.125 14.6855C115.937 14.6855 112.893 17.9011 112.893 22.337C112.893 26.8279 115.825 29.8221 120.265 29.8221C123.532 29.8221 126.128 28.0755 127.022 24.9703L127.022 24.9704ZM123.225 20.7568H116.914C117.137 18.7606 118.366 17.5408 120.125 17.5408C122.108 17.5408 123.057 19.0102 123.225 20.7568ZM133.248 15.1014H129.507V34.4795H133.444V27.632C134.505 29.1014 136.069 29.7668 137.884 29.7668C141.653 29.7668 144.138 26.8281 144.138 22.3372C144.138 17.7349 141.598 14.7134 137.716 14.7134C135.873 14.7134 134.31 15.4065 133.248 16.8755V15.1015L133.248 15.1014ZM136.739 17.8735C138.861 17.8735 140.173 19.5369 140.173 22.3372C140.173 25.0537 138.889 26.6895 136.767 26.6895C134.589 26.6895 133.304 25.0538 133.304 22.2817C133.304 19.5093 134.589 17.8735 136.739 17.8735ZM159.97 29.4064C159.439 28.1864 159.467 26.828 159.467 25.5249V19.3429C159.467 15.351 156.089 14.6856 153.185 14.6856C149.025 14.6856 146.735 16.321 146.512 19.5092H150.225C150.504 17.8735 151.258 17.319 153.073 17.319C154.832 17.319 155.67 17.9289 155.67 19.232C155.67 20.3963 154.721 20.6182 152.152 20.9509C149.304 21.3113 145.869 21.7549 145.869 25.4973C145.869 28.1864 147.824 29.8222 151.007 29.8222C152.738 29.8222 154.441 29.2399 155.67 28.0201C155.726 28.6577 155.754 28.8795 155.949 29.4064H159.97ZM155.642 22.448V24.0559C155.642 26.1072 154.19 27.2439 152.124 27.2439C150.755 27.2439 149.946 26.523 149.946 25.3309C149.946 23.5847 151.481 23.4184 152.85 23.1965C153.855 23.0302 154.721 22.9747 155.642 22.448Z" fill="white"/>
<path d="M71.2813 51.0767L71.1507 51.3469C70.8893 51.8874 70.5409 52.4062 69.9966 52.4062C69.5176 52.4062 69.2673 52.2978 69.1261 52.2116V53.0763C69.3434 53.1732 69.7355 53.2705 70.0839 53.2705C70.8456 53.2705 71.4881 52.8383 72.141 51.5198L75.1565 45.3918H74.0571L71.8364 50.0824L69.5721 45.3918H68.4512L71.2814 51.0767H71.2813ZM81.5247 53.0869V45.3918H80.5014V48.7745C80.1094 48.8612 79.3147 49.0341 78.3458 49.0341C76.7892 49.0341 76.6476 48.1261 76.6476 47.4993V45.3918H75.6243V47.5855C75.6243 48.4396 75.9727 49.931 78.3458 49.931C79.0862 49.931 80.1206 49.747 80.5014 49.6609V53.0869H81.5247ZM88.6002 45.3918H83.2336V53.0869H88.655V52.2006H84.2568V49.5418H88.3174V48.6882H84.2568V46.2777H88.6002V45.3918ZM90.9078 48.5042V46.2777H95.1968V45.3918H89.8846V53.0869H93.4988C95.012 53.0869 95.8829 52.2545 95.8829 50.8065C95.8829 49.3473 95.0227 48.5043 93.4988 48.5043H90.9078V48.5042ZM94.8596 50.8064C94.8596 51.7467 94.2934 52.2006 93.1615 52.2006H90.9078V49.3906H93.1615C94.3041 49.3906 94.8596 49.8555 94.8596 50.8064ZM103.481 45.3917H102.458V48.6015H98.3647V45.3917H97.3415V53.0868H98.3647V49.4878H102.458V53.0868H103.481V45.3917ZM111.95 45.3917V53.0868H112.974V45.3917H111.95ZM110.981 50.8064C110.981 49.3472 110.122 48.5153 108.597 48.5153H106.224V45.3918H105.201V53.0869H108.597C110.111 53.0869 110.981 52.2545 110.981 50.8065V50.8064ZM109.948 50.8064C109.948 51.7467 109.381 52.2006 108.249 52.2006H106.224V49.3906H108.249C109.392 49.3906 109.948 49.8555 109.948 50.8064ZM119.386 43.3704H118.83C118.656 43.8892 118.308 44.2134 117.742 44.2134C117.187 44.2134 116.805 43.8893 116.653 43.3704H116.098C116.207 44.235 116.849 44.8619 117.752 44.8619C118.699 44.8619 119.244 44.235 119.386 43.3704ZM114.683 53.0868H115.967L119.777 46.5478H119.799V53.0868H120.822V45.3917H119.527L115.728 51.9086H115.706V45.3917H114.683V53.0868ZM131.414 54.9998H132.405V52.2005H131.556V45.3917H130.532V52.2005H126.527V45.3917H125.503V53.0868H131.414V54.9998ZM138.795 45.3917H133.428V53.0868H138.849V52.2005H134.451V49.5417H138.512V48.6881H134.451V46.2776H138.795V45.3917ZM146.219 45.3917H145.195V48.6015H141.102V45.3917H140.079V53.0868H141.102V49.4878H145.195V53.0868H146.219V45.3917ZM153.316 45.3917H147.09V46.2776H149.692V53.0868H150.715V46.2776H153.316V45.3917ZM154.231 45.3917V53.0868H155.254V49.931H157.355C158.868 49.931 160 49.3472 160 47.6072C160 46.0074 158.901 45.3918 157.42 45.3918H154.231V45.3917ZM155.254 46.267H157.083C158.095 46.267 158.977 46.4399 158.977 47.6721C158.977 48.8067 158.215 49.077 157.224 49.077H155.254V46.267Z" fill="white"/>
<path fill-rule="evenodd" clip-rule="evenodd" d="M32.4412 46.183L32.5269 53.9258C41.7578 50.1283 49.4932 42.9608 50.8836 32.1653C51.7303 20.4113 47.6534 13.8014 41.7183 9.09455L42.562 5.09727L37.3699 2.19601L34.6155 4.99162C33.1245 4.41975 31.5914 3.99552 30.0169 3.72075L28.6995 0.000244141L22.7418 0.0652383L21.8295 3.60021C20.1308 3.8412 18.4827 4.25015 16.8856 4.82737L14.0952 2.44969L8.96846 5.46347L9.87713 8.68789C5.0208 12.4136 1.13697 18.8506 0.236756 24.8377L0 32.2338C0.0475819 36.3843 0.122463 42.9114 0.127654 43.0682L6.7448 42.996C6.72885 42.6828 6.59619 28.8496 6.59264 28.5266C6.55582 25.191 7.37173 22.0574 9.0445 19.1624C10.7207 16.2603 13.0123 13.9486 15.9134 12.2263C18.7938 10.5102 21.9339 9.63064 25.3237 9.58664C28.7129 9.55677 31.8722 10.3675 34.7896 12.0203C37.7284 13.6791 40.0666 15.9419 41.8105 18.805C43.5458 21.6687 44.432 24.7739 44.4689 28.1136C44.5731 37.5322 39.2966 42.9108 32.4411 46.1828L32.4412 46.183ZM29.5228 54.0212L29.4372 46.2877L26.1262 46.3239L26.2118 54.0574L29.5228 54.0212ZM23.5019 54.087L23.4163 46.3535L20.1049 46.3895L20.1905 54.1232L23.5019 54.087ZM17.331 54.1543L17.2454 46.4207L13.9346 46.4568L14.0201 54.1904L17.331 54.1543ZM11.4175 54.2197L0.229643 54.3417L0.144091 46.6071L11.332 46.4852L11.4175 54.2197Z" fill="#4988D1"/>
</g>
<defs>
<clipPath id="clip0_2311_2449">
<rect width="160" height="55" fill="white"/>
</clipPath>
</defs>
</svg>

<svg width="160" height="55" viewBox="0 0 160 55" fill="none" xmlns="http://www.w3.org/2000/svg"><g clip-path="url(#clip0_2311_2449)"><path fill-rule="evenodd" clip-rule="evenodd" d="M27.698 14.24l7.187 5.985c.412.343.835 2.322.278 3.005L24.657 36.117l-2.48-2.07 8.95-10.548c.267-.45.698-.41.5-1.187l-.605-.517-4.199-3.533c-.39-.236-.505-.554-1.196-.19l-.35.367-8.787 11.04-2.511-2.042 10.67-12.97c.407-.494 2.52-.666 3.048-.227z" fill="#4988D1"/><path fill-rule="evenodd" clip-rule="evenodd" d="M23.297 42.948l-7.187-5.984c-.412-.344-.835-2.322-.278-3.005l10.505-12.888 2.482 2.07-8.952 10.548c-.266.45-.698.41-.499 1.187l.605.517 4.198 3.534c.39.236.506.554 1.197.19l.35-.368 8.787-11.04 2.511 2.042-10.67 12.97c-.408.495-2.52.667-3.049.227z" fill="#78213A"/><path d="M87.345 21.782h-4.329c-.363 2.884-1.926 4.436-4.55 4.436-3.212 0-5.25-2.606-5.25-6.681 0-3.3 1.48-6.71 5.305-6.71 2.346 0 3.965 1.276 4.412 3.438h4.272c-.335-4.075-3.826-7.069-8.6-7.069-6.087 0-9.773 4.575-9.773 10.313 0 6.238 3.825 10.368 9.605 10.368 5.445 0 8.46-3.271 8.907-8.095zm23.622.25c0-4.519-2.15-7.347-5.585-7.347-1.675 0-2.764.694-3.183 1.47h-.083V9.666h-3.91v6.487h-.083c-.42-.775-1.508-1.469-3.184-1.469-3.434 0-5.584 2.828-5.584 7.347 0 3.992 1.48 7.762 5.78 7.762 1.2 0 2.429-.637 2.988-1.33h.083v6.016h3.91v-6.016h.083c.558.693 1.787 1.33 2.988 1.33 4.3 0 5.78-3.77 5.78-7.762zm-3.909.083c0 2.357-.587 4.657-2.793 4.657-1.172 0-2.01-.665-2.149-1.386v-6.154c.362-1.137 1.423-1.525 2.261-1.525 1.871 0 2.681 1.636 2.681 4.408zm-8.852 3.271c-.14.721-.977 1.387-2.15 1.387-2.206 0-2.792-2.301-2.792-4.658 0-2.772.81-4.408 2.68-4.408.838 0 1.9.388 2.262 1.525v6.154zm28.816-.416h-3.797c-.587 1.442-1.48 2.08-2.932 2.08-2.123 0-3.323-1.331-3.379-3.798h10.331v-.388c0-5.018-2.764-8.179-7.12-8.179-4.188 0-7.232 3.216-7.232 7.652 0 4.49 2.932 7.485 7.372 7.485 3.267 0 5.863-1.746 6.757-4.852zm-3.797-4.213h-6.311c.223-1.996 1.452-3.216 3.211-3.216 1.983 0 2.932 1.47 3.1 3.216zm10.023-5.656h-3.741V34.48h3.937v-6.848c1.061 1.47 2.625 2.135 4.44 2.135 3.769 0 6.254-2.939 6.254-7.43 0-4.602-2.54-7.624-6.422-7.624-1.843 0-3.406.694-4.468 2.162v-1.774zm3.491 2.772c2.122 0 3.434 1.664 3.434 4.464 0 2.717-1.284 4.352-3.406 4.352-2.178 0-3.463-1.635-3.463-4.407 0-2.773 1.285-4.409 3.435-4.409zm23.231 11.533c-.531-1.22-.503-2.578-.503-3.881v-6.182c0-3.992-3.378-4.657-6.282-4.657-4.16 0-6.45 1.635-6.673 4.823h3.713c.279-1.636 1.033-2.19 2.848-2.19 1.759 0 2.597.61 2.597 1.913 0 1.164-.949 1.386-3.518 1.719-2.848.36-6.283.804-6.283 4.546 0 2.69 1.955 4.325 5.138 4.325 1.731 0 3.434-.582 4.663-1.802.056.638.084.86.279 1.386h4.021zm-4.328-6.958v1.608c0 2.051-1.452 3.188-3.518 3.188-1.369 0-2.178-.721-2.178-1.913 0-1.746 1.535-1.913 2.904-2.134 1.005-.167 1.871-.222 2.792-.749zM71.281 51.077l-.13.27c-.262.54-.61 1.06-1.154 1.06-.48 0-.73-.11-.87-.195v.864c.216.097.609.194.957.194.762 0 1.404-.432 2.057-1.75l3.015-6.128h-1.099l-2.22 4.69-2.265-4.69h-1.12l2.83 5.685zm10.244 2.01v-7.695H80.5v3.383a9.783 9.783 0 01-2.155.26c-1.557 0-1.698-.909-1.698-1.536v-2.107h-1.024v2.194c0 .854.349 2.345 2.722 2.345.74 0 1.775-.184 2.155-.27v3.426h1.024zm7.075-7.695h-5.366v7.695h5.421V52.2h-4.398v-2.66h4.06v-.853h-4.06v-2.41H88.6v-.886zm2.308 3.112v-2.226h4.289v-.886h-5.312v7.695h3.614c1.513 0 2.384-.833 2.384-2.28 0-1.46-.86-2.303-2.384-2.303h-2.591zm3.952 2.302c0 .94-.567 1.395-1.698 1.395h-2.254v-2.81h2.254c1.142 0 1.698.465 1.698 1.415zm8.621-5.414h-1.023v3.21h-4.093v-3.21h-1.023v7.695h1.023v-3.6h4.093v3.6h1.023v-7.695zm8.469 0v7.695h1.024v-7.695h-1.024zm-.969 5.414c0-1.459-.859-2.29-2.384-2.29h-2.373v-3.124h-1.023v7.695h3.396c1.514 0 2.384-.833 2.384-2.28zm-1.033 0c0 .94-.567 1.395-1.699 1.395h-2.025v-2.81h2.025c1.143 0 1.699.465 1.699 1.415zm9.438-7.436h-.556c-.174.52-.522.843-1.088.843-.555 0-.937-.324-1.089-.843h-.555c.109.865.751 1.492 1.654 1.492.947 0 1.492-.627 1.634-1.492zm-4.703 9.717h1.284l3.81-6.54h.022v6.54h1.023v-7.695h-1.295l-3.799 6.517h-.022v-6.517h-1.023v7.695zM131.414 55h.991v-2.8h-.849v-6.808h-1.024V52.2h-4.005v-6.808h-1.024v7.695h5.911V55zm7.381-9.608h-5.367v7.695h5.421V52.2h-4.398v-2.658h4.061v-.854h-4.061v-2.41h4.344v-.886zm7.424 0h-1.024v3.21h-4.093v-3.21h-1.023v7.695h1.023v-3.6h4.093v3.6h1.024v-7.695zm7.097 0h-6.226v.886h2.602v6.809h1.023v-6.81h2.601v-.885zm.915 0v7.695h1.023V49.93h2.101c1.513 0 2.645-.584 2.645-2.324 0-1.6-1.099-2.215-2.58-2.215h-3.189zm1.023.875h1.829c1.012 0 1.894.173 1.894 1.405 0 1.135-.762 1.405-1.753 1.405h-1.97v-2.81z" fill="#fff"/><path fill-rule="evenodd" clip-rule="evenodd" d="M32.441 46.183l.086 7.743c9.23-3.798 16.966-10.965 18.357-21.76.846-11.755-3.23-18.365-9.166-23.071l.844-3.998-5.192-2.901-2.755 2.796a24.644 24.644 0 00-4.598-1.271L28.7 0l-5.958.064-.913 3.535c-1.698.241-3.346.65-4.943 1.227l-2.79-2.377-5.128 3.013.91 3.225C5.02 12.414 1.136 18.85.236 24.838L0 32.234c.048 4.15.122 10.677.128 10.834l6.617-.072c-.016-.313-.149-14.146-.152-14.47a18.028 18.028 0 012.451-9.364c1.677-2.902 3.968-5.213 6.87-6.936 2.88-1.716 6.02-2.595 9.41-2.64 3.389-.03 6.548.781 9.466 2.434a19.05 19.05 0 017.02 6.785 18.042 18.042 0 012.659 9.309c.104 9.418-5.172 14.797-12.028 18.069zm-2.918 7.838l-.086-7.733-3.31.036.085 7.733 3.31-.036zm-6.021.066l-.086-7.734-3.311.036.085 7.734 3.312-.036zm-6.171.067l-.086-7.733-3.31.036.085 7.733 3.311-.036zm-5.913.066L.23 54.342l-.086-7.735 11.188-.122.085 7.735z" fill="#4988D1"/></g><defs><clipPath id="clip0_2311_2449"><path fill="#fff" d="M0 0h160v55H0z"/></clipPath></defs></svg>
